material/.icons/material/numeric-6-box-multiple.svg

<svg xmlns="http://www.w3.org/2000/svg" viewBox="0 0 24 24"><path d="M13 11h2v2h-2v-2M3 5v16h16v2H3a2 2 0 01-2-2V5h2m18-4a2 2 0 012 2v14a2 2 0 01-2 2H7a2 2 0 01-2-2V3a2 2 0 012-2h14m-8 14h2a2 2 0 002-2v-2a2 2 0 00-2-2h-2V7h4V5h-4a2 2 0 00-2 2v6a2 2 0 002 2z"/></svg>

<?xml version="1.0" encoding="UTF-8"?><!DOCTYPE svg PUBLIC "-//W3C//DTD SVG 1.1//EN" "http://www.w3.org/Graphics/SVG/1.1/DTD/svg11.dtd"><svg xmlns="http://www.w3.org/2000/svg" xmlns:xlink="http://www.w3.org/1999/xlink" version="1.1" id="mdi-numeric-6-box-multiple" width="24" height="24" viewBox="0 0 24 24"><path d="M13,11H15V13H13V11M3,5V21H19V23H3A2,2 0 0,1 1,21V5H3M21,1A2,2 0 0,1 23,3V17A2,2 0 0,1 21,19H7A2,2 0 0,1 5,17V3A2,2 0 0,1 7,1H21M13,15H15A2,2 0 0,0 17,13V11C17,9.89 16.1,9 15,9H13V7H17V5H13A2,2 0 0,0 11,7V13C11,14.11 11.9,15 13,15Z" /></svg>
